static/img/drawer-structure.svg

<svg width="273" height="348" viewBox="0 0 273 348" fill="none" xmlns="http://www.w3.org/2000/svg">
<rect x="31" y="29" width="210" height="318" fill="white" stroke="#999999" stroke-width="2"/>
<path d="M30 87H241" stroke="#BCBCBC"/>
<rect x="44" y="101" width="165" height="6" rx="2" fill="#BFBFBF"/>
<rect x="44" y="111" width="171" height="6" rx="2" fill="#BFBFBF"/>
<rect x="44" y="121" width="161" height="6" rx="2" fill="#BFBFBF"/>
<rect x="45" y="58" width="63" height="16" rx="2" stroke="#999999" stroke-width="2"/>
<rect x="166" y="319" width="63" height="16" rx="2" fill="#1F75CB" stroke="#1F75CB" stroke-width="2"/>
<rect x="95" y="319" width="63" height="16" rx="2" stroke="#999999" stroke-width="2"/>
<path d="M229.625 42.3753C229.124 41.8749 228.313 41.8749 227.812 42.3753L226 44.1877L224.188 42.3753C223.687 41.8749 222.876 41.8749 222.375 42.3753C221.875 42.8758 221.875 43.6872 222.375 44.1877L224.188 46L222.375 47.8123C221.875 48.3128 221.875 49.1242 222.375 49.6246C222.876 50.1251 223.687 50.1251 224.188 49.6246L226 47.8123L227.812 49.6246C228.313 50.1251 229.124 50.1251 229.625 49.6246C230.125 49.1242 230.125 48.3128 229.625 47.8123L227.812 46L229.625 44.1877C230.125 43.6872 230.125 42.8758 229.625 42.3753Z" fill="#666666"/>
<rect x="44" y="42" width="94" height="8" rx="2" fill="#666666"/>
<circle cx="136" cy="130" r="16" fill="#7B58CF"/>
<circle cx="136" cy="130" r="18" stroke="#7B58CF" stroke-opacity="0.3" stroke-width="4"/>
<path d="M139.287 123.168V124.803C138.918 124.586 138.525 124.422 138.109 124.311C137.693 124.193 137.26 124.135 136.809 124.135C135.684 124.135 134.831 124.56 134.251 125.409C133.671 126.253 133.381 127.498 133.381 129.145C133.662 128.559 134.052 128.11 134.55 127.8C135.048 127.483 135.619 127.325 136.264 127.325C137.529 127.325 138.508 127.715 139.199 128.494C139.896 129.268 140.245 130.366 140.245 131.79C140.245 133.208 139.888 134.307 139.173 135.086C138.458 135.865 137.453 136.255 136.158 136.255C134.635 136.255 133.519 135.71 132.81 134.62C132.101 133.524 131.746 131.802 131.746 129.452C131.746 127.237 132.171 125.55 133.021 124.39C133.876 123.224 135.112 122.641 136.729 122.641C137.163 122.641 137.597 122.688 138.03 122.781C138.464 122.869 138.883 122.998 139.287 123.168ZM136.123 128.714C135.367 128.714 134.772 128.986 134.339 129.531C133.905 130.076 133.688 130.829 133.688 131.79C133.688 132.751 133.905 133.504 134.339 134.049C134.772 134.594 135.367 134.866 136.123 134.866C136.908 134.866 137.5 134.608 137.898 134.093C138.297 133.571 138.496 132.804 138.496 131.79C138.496 130.771 138.297 130.003 137.898 129.487C137.5 128.972 136.908 128.714 136.123 128.714Z" fill="white"/>
<circle cx="246" cy="311" r="16" fill="#7B58CF"/>
<circle cx="246" cy="311" r="18" stroke="#7B58CF" stroke-opacity="0.3" stroke-width="4"/>
<path d="M241.799 303.878H250.061V304.634L245.367 317H243.513L248.083 305.372H241.799V303.878Z" fill="white"/>
<circle cx="76" cy="80" r="16" fill="#7B58CF"/>
<circle cx="76" cy="80" r="18" stroke="#7B58CF" stroke-opacity="0.3" stroke-width="4"/>
<path d="M72.3965 72.8779H79.041V74.3721H74.0137V77.5977C74.2656 77.5039 74.5176 77.4365 74.7695 77.3955C75.0273 77.3486 75.2852 77.3252 75.543 77.3252C76.9023 77.3252 77.9805 77.7266 78.7773 78.5293C79.5742 79.332 79.9727 80.4189 79.9727 81.79C79.9727 83.1729 79.5537 84.2627 78.7158 85.0596C77.8838 85.8564 76.7441 86.2549 75.2969 86.2549C74.5996 86.2549 73.9609 86.208 73.3809 86.1143C72.8066 86.0205 72.291 85.8799 71.834 85.6924V83.8906C72.373 84.1836 72.915 84.4033 73.46 84.5498C74.0049 84.6904 74.5615 84.7607 75.1299 84.7607C76.1084 84.7607 76.8613 84.5029 77.3887 83.9873C77.9219 83.4717 78.1885 82.7393 78.1885 81.79C78.1885 80.8525 77.9131 80.123 77.3623 79.6016C76.8174 79.0801 76.0557 78.8193 75.0771 78.8193C74.6025 78.8193 74.1396 78.875 73.6885 78.9863C73.2373 79.0918 72.8066 79.2529 72.3965 79.4697V72.8779Z" fill="white"/>
<circle cx="253" cy="46" r="16" fill="#7B58CF"/>
<circle cx="253" cy="46" r="18" stroke="#7B58CF" stroke-opacity="0.3" stroke-width="4"/>
<path d="M254.037 40.4951L249.897 47.4297H254.037V40.4951ZM253.747 38.8779H255.804V47.4297H257.553V48.8711H255.804V52H254.037V48.8711H248.474V47.1924L253.747 38.8779Z" fill="white"/>
<circle cx="91" cy="36" r="16" fill="#7B58CF"/>
<circle cx="91" cy="36" r="18" stroke="#7B58CF" stroke-opacity="0.3" stroke-width="4"/>
<path d="M92.3975 34.9775C93.2588 35.2061 93.918 35.6133 94.375 36.1992C94.832 36.7793 95.0605 37.5059 95.0605 38.3789C95.0605 39.5859 94.6533 40.5352 93.8389 41.2266C93.0303 41.9121 91.9082 42.2549 90.4727 42.2549C89.8691 42.2549 89.2539 42.1992 88.627 42.0879C88 41.9766 87.3848 41.8154 86.7812 41.6045V39.8379C87.3789 40.1484 87.9678 40.3799 88.5479 40.5322C89.1279 40.6846 89.7051 40.7607 90.2793 40.7607C91.252 40.7607 91.999 40.541 92.5205 40.1016C93.042 39.6621 93.3027 39.0293 93.3027 38.2031C93.3027 37.4414 93.042 36.8379 92.5205 36.3926C91.999 35.9414 91.293 35.7158 90.4023 35.7158H89.0488V34.2568H90.4023C91.2168 34.2568 91.8525 34.0781 92.3096 33.7207C92.7666 33.3633 92.9951 32.8652 92.9951 32.2266C92.9951 31.5527 92.7812 31.0371 92.3535 30.6797C91.9316 30.3164 91.3281 30.1348 90.543 30.1348C90.0215 30.1348 89.4824 30.1934 88.9258 30.3105C88.3691 30.4277 87.7861 30.6035 87.1768 30.8379V29.2031C87.8857 29.0156 88.5156 28.875 89.0664 28.7812C89.623 28.6875 90.1152 28.6406 90.543 28.6406C91.8203 28.6406 92.8398 28.9629 93.6016 29.6074C94.3691 30.2461 94.7529 31.0957 94.7529 32.1562C94.7529 32.877 94.5508 33.4775 94.1465 33.958C93.748 34.4385 93.165 34.7783 92.3975 34.9775Z" fill="white"/>
<circle cx="20" cy="57" r="16" fill="#7B58CF"/>
<circle cx="20" cy="57" r="18" stroke="#7B58CF" stroke-opacity="0.3" stroke-width="4"/>
<path d="M17.8555 61.5059H23.8848V63H15.9131V61.5059C17.0088 60.3516 17.9668 59.332 18.7871 58.4473C19.6074 57.5625 20.1729 56.9385 20.4834 56.5752C21.0693 55.8604 21.4648 55.2832 21.6699 54.8438C21.875 54.3984 21.9775 53.9443 21.9775 53.4814C21.9775 52.749 21.7607 52.1748 21.3271 51.7588C20.8994 51.3428 20.3105 51.1348 19.5605 51.1348C19.0273 51.1348 18.4678 51.2314 17.8818 51.4248C17.2959 51.6182 16.6748 51.9111 16.0186 52.3037V50.5107C16.6221 50.2236 17.2139 50.0068 17.7939 49.8604C18.3799 49.7139 18.957 49.6406 19.5254 49.6406C20.8086 49.6406 21.8398 49.9834 22.6191 50.6689C23.4043 51.3486 23.7969 52.2422 23.7969 53.3496C23.7969 53.9121 23.665 54.4746 23.4014 55.0371C23.1436 55.5996 22.7217 56.2207 22.1357 56.9004C21.8076 57.2812 21.3301 57.8086 20.7031 58.4824C20.082 59.1562 19.1328 60.1641 17.8555 61.5059Z" fill="white"/>
<circle cx="20" cy="20" r="16" fill="#7B58CF"/>
<circle cx="20" cy="20" r="18" stroke="#7B58CF" stroke-opacity="0.3" stroke-width="4"/>
<path d="M16.9502 24.5146H19.71V14.6006L16.4053 16.1914V14.4863L19.6924 12.9219H21.4678V24.5146H24.1924V26H16.9502V24.5146Z" fill="white"/>
</svg>

<svg xmlns="http://www.w3.org/2000/svg" width="273" height="348" fill="none"><path fill="#fff" stroke="#999" stroke-width="2" d="M31 29h210v318H31z"/><path stroke="#BCBCBC" d="M30 87h211"/><rect width="165" height="6" x="44" y="101" fill="#BFBFBF" rx="2"/><rect width="171" height="6" x="44" y="111" fill="#BFBFBF" rx="2"/><rect width="161" height="6" x="44" y="121" fill="#BFBFBF" rx="2"/><rect width="63" height="16" x="45" y="58" stroke="#999" stroke-width="2" rx="2"/><rect width="63" height="16" x="166" y="319" fill="#1F75CB" stroke="#1F75CB" stroke-width="2" rx="2"/><rect width="63" height="16" x="95" y="319" stroke="#999" stroke-width="2" rx="2"/><path fill="#666" d="M229.625 42.375c-.501-.5-1.312-.5-1.813 0L226 44.188l-1.812-1.813a1.282 1.282 0 0 0-1.813 1.813L224.188 46l-1.813 1.812a1.282 1.282 0 0 0 1.813 1.813L226 47.812l1.812 1.813a1.282 1.282 0 0 0 1.813-1.813L227.812 46l1.813-1.812c.5-.5.5-1.312 0-1.813Z"/><rect width="94" height="8" x="44" y="42" fill="#666" rx="2"/><circle cx="136" cy="130" r="16" fill="#7B58CF"/><circle cx="136" cy="130" r="18" stroke="#7B58CF" stroke-opacity=".3" stroke-width="4"/><path fill="#fff" d="M139.287 123.168v1.635a4.708 4.708 0 0 0-1.178-.492 4.739 4.739 0 0 0-1.3-.176c-1.125 0-1.978.425-2.558 1.274-.58.844-.87 2.089-.87 3.736.281-.586.671-1.035 1.169-1.345.498-.317 1.069-.475 1.714-.475 1.265 0 2.244.39 2.935 1.169.697.774 1.046 1.872 1.046 3.296 0 1.418-.357 2.517-1.072 3.296-.715.779-1.72 1.169-3.015 1.169-1.523 0-2.639-.545-3.348-1.635-.709-1.096-1.064-2.818-1.064-5.168 0-2.215.425-3.902 1.275-5.062.855-1.166 2.091-1.749 3.708-1.749.434 0 .868.047 1.301.14.434.088.853.217 1.257.387Zm-3.164 5.546c-.756 0-1.351.272-1.784.817-.434.545-.651 1.298-.651 2.259 0 .961.217 1.714.651 2.259.433.545 1.028.817 1.784.817.785 0 1.377-.258 1.775-.773.399-.522.598-1.289.598-2.303 0-1.019-.199-1.787-.598-2.303-.398-.515-.99-.773-1.775-.773Z"/><circle cx="246" cy="311" r="16" fill="#7B58CF"/><circle cx="246" cy="311" r="18" stroke="#7B58CF" stroke-opacity=".3" stroke-width="4"/><path fill="#fff" d="M241.799 303.878h8.262v.756L245.367 317h-1.854l4.57-11.628h-6.284v-1.494Z"/><circle cx="76" cy="80" r="16" fill="#7B58CF"/><circle cx="76" cy="80" r="18" stroke="#7B58CF" stroke-opacity=".3" stroke-width="4"/><path fill="#fff" d="M72.397 72.878h6.644v1.494h-5.027v3.226a4.01 4.01 0 0 1 .755-.203c.258-.046.516-.07.774-.07 1.36 0 2.438.402 3.234 1.204.797.803 1.196 1.89 1.196 3.261 0 1.383-.42 2.473-1.257 3.27-.832.796-1.972 1.195-3.42 1.195-.696 0-1.335-.047-1.915-.14a7.078 7.078 0 0 1-1.547-.423v-1.801a7.457 7.457 0 0 0 1.626.659c.545.14 1.102.21 1.67.21.978 0 1.731-.257 2.259-.773.533-.515.8-1.248.8-2.197 0-.938-.276-1.667-.827-2.188-.545-.522-1.306-.783-2.285-.783-.474 0-.937.056-1.388.167a5.369 5.369 0 0 0-1.292.484v-6.592Z"/><circle cx="253" cy="46" r="16" fill="#7B58CF"/><circle cx="253" cy="46" r="18" stroke="#7B58CF" stroke-opacity=".3" stroke-width="4"/><path fill="#fff" d="m254.037 40.495-4.14 6.935h4.14v-6.935Zm-.29-1.617h2.057v8.552h1.749v1.441h-1.749V52h-1.767v-3.129h-5.563v-1.679l5.273-8.314Z"/><circle cx="91" cy="36" r="16" fill="#7B58CF"/><circle cx="91" cy="36" r="18" stroke="#7B58CF" stroke-opacity=".3" stroke-width="4"/><path fill="#fff" d="M92.397 34.977c.862.23 1.521.636 1.978 1.222.457.58.686 1.307.686 2.18 0 1.207-.408 2.156-1.222 2.848-.809.685-1.93 1.028-3.366 1.028-.604 0-1.22-.056-1.846-.167a11.884 11.884 0 0 1-1.846-.483v-1.767a8.55 8.55 0 0 0 1.767.694 6.79 6.79 0 0 0 1.731.229c.973 0 1.72-.22 2.242-.66.521-.439.782-1.072.782-1.898 0-.762-.261-1.365-.782-1.81-.522-.452-1.228-.677-2.119-.677H89.05v-1.46h1.353c.815 0 1.45-.178 1.908-.535.457-.358.685-.856.685-1.494 0-.674-.214-1.19-.642-1.547-.421-.364-1.025-.545-1.81-.545a7.85 7.85 0 0 0-1.617.175 11.47 11.47 0 0 0-1.75.528v-1.635a21.833 21.833 0 0 1 1.89-.422 9.018 9.018 0 0 1 1.477-.14c1.277 0 2.297.322 3.059.966.767.64 1.15 1.489 1.15 2.55 0 .72-.201 1.32-.605 1.801-.399.48-.982.82-1.75 1.02Z"/><circle cx="20" cy="57" r="16" fill="#7B58CF"/><circle cx="20" cy="57" r="18" stroke="#7B58CF" stroke-opacity=".3" stroke-width="4"/><path fill="#fff" d="M17.855 61.506h6.03V63h-7.972v-1.494a363.318 363.318 0 0 0 2.874-3.059 73.424 73.424 0 0 0 1.696-1.872c.586-.715.982-1.292 1.187-1.731.205-.446.307-.9.307-1.363 0-.732-.216-1.306-.65-1.722-.428-.416-1.017-.624-1.767-.624-.533 0-1.092.096-1.678.29a9.421 9.421 0 0 0-1.863.879V50.51a9.622 9.622 0 0 1 1.775-.65 7.12 7.12 0 0 1 1.731-.22c1.284 0 2.315.342 3.094 1.028.785.68 1.178 1.573 1.178 2.68 0 .563-.132 1.126-.396 1.688-.257.563-.68 1.184-1.265 1.863-.328.381-.806.909-1.433 1.582-.621.674-1.57 1.682-2.848 3.024Z"/><circle cx="20" cy="20" r="16" fill="#7B58CF"/><circle cx="20" cy="20" r="18" stroke="#7B58CF" stroke-opacity=".3" stroke-width="4"/><path fill="#fff" d="M16.95 24.515h2.76V14.6l-3.305 1.59v-1.705l3.287-1.564h1.776v11.593h2.724V26H16.95v-1.485Z"/></svg>
